usr/share/icons/biglinux-icons-material/scalable/mimetypes/application-x-php.svg

<svg width="24" height="24" viewBox="0 0 24 24" fill="none" xmlns="http://www.w3.org/2000/svg">
<rect x="1" y="1" width="22" height="22" rx="6.6" fill="url(#paint0_radial_3_1092)"/>
<path d="M11.8437 8C11.5297 8 11.232 8.03603 10.9507 8.10798C10.676 8.17994 10.4274 8.27482 10.205 8.39256L10.4601 9.0992C10.8722 8.87677 11.2942 8.76557 11.726 8.76557C12.0662 8.76557 12.3246 8.85376 12.5012 9.03038C12.6779 9.20046 12.766 9.4229 12.766 9.69764C12.766 9.86773 12.7269 10.0248 12.6484 10.1687C12.5764 10.3126 12.4815 10.45 12.3638 10.5809C12.246 10.7117 12.1218 10.8424 11.991 10.9732C11.8602 11.0975 11.7358 11.2349 11.618 11.3854C11.5003 11.5293 11.4022 11.6864 11.3237 11.8565C11.2518 12.0266 11.2158 12.2161 11.2158 12.4254C11.2158 12.5694 11.2288 12.7068 11.2549 12.8376H12.0203C12.0137 12.8049 12.0105 12.7691 12.0105 12.7298V12.6218C12.0105 12.406 12.053 12.2128 12.1381 12.0428C12.2231 11.8662 12.3278 11.7059 12.4521 11.562C12.5764 11.4116 12.7136 11.2677 12.8641 11.1303C13.0145 10.9929 13.1519 10.849 13.2762 10.6986C13.4005 10.5481 13.5052 10.3879 13.5903 10.2178C13.6753 10.0412 13.7178 9.84157 13.7178 9.61915C13.7178 9.44253 13.6885 9.25946 13.6296 9.06976C13.5773 8.87352 13.4791 8.69673 13.3352 8.53974C13.1913 8.38275 12.9983 8.2552 12.7563 8.15707C12.5208 8.0524 12.2165 8 11.8437 8ZM9.23894 9.83514L5 11.6309V12.4159L9.23894 14.2116L9.49406 13.456L6.01063 12.0233L9.49406 10.5907L9.23894 9.83514ZM14.7609 9.83514L14.5058 10.5906L17.9892 12.0232L14.5058 13.4559L14.7609 14.2115L19 12.4157V11.6308L14.7609 9.83514ZM11.6866 13.77C11.4838 13.77 11.3235 13.8353 11.2058 13.9662C11.088 14.097 11.0292 14.2507 11.0292 14.4274C11.0292 14.604 11.088 14.7577 11.2058 14.8886C11.3235 15.0194 11.4838 15.085 11.6866 15.085C11.8894 15.085 12.0498 15.0194 12.1675 14.8886C12.2853 14.7577 12.3441 14.604 12.3441 14.4274C12.3441 14.2507 12.2853 14.097 12.1675 13.9662C12.0498 13.8353 11.8894 13.77 11.6866 13.77Z" fill="white"/>
<defs>
<radialGradient id="paint0_radial_3_1092" cx="0" cy="0" r="1" gradientUnits="userSpaceOnUse" gradientTransform="translate(17.5 1) rotate(116.565) scale(24.5967)">
<stop stop-color="#B6A6ED"/>
<stop offset="1" stop-color="#816ACE"/>
</radialGradient>
</defs>
</svg>

<svg xmlns="http://www.w3.org/2000/svg" width="24" height="24" fill="none"><rect width="22" height="22" x="1" y="1" fill="url(#a)" rx="6.6"/><path fill="#fff" d="M11.844 8a3.466 3.466 0 0 0-1.639.393l.255.706a2.636 2.636 0 0 1 1.266-.333c.34 0 .599.088.775.264.177.17.265.393.265.668 0 .17-.04.327-.118.47a1.866 1.866 0 0 1-.284.413c-.118.13-.242.261-.373.392-.13.124-.255.262-.373.412a2.191 2.191 0 0 0-.294.472c-.072.17-.108.36-.108.568 0 .144.013.282.039.413h.765a.545.545 0 0 1-.01-.108v-.108c0-.216.043-.41.128-.58.085-.176.19-.336.314-.48.124-.15.262-.294.412-.432.15-.137.288-.281.412-.431.124-.15.23-.311.314-.481.085-.177.128-.376.128-.599 0-.176-.03-.36-.088-.55a1.254 1.254 0 0 0-.295-.53 1.57 1.57 0 0 0-.579-.382c-.235-.105-.54-.157-.912-.157ZM9.239 9.835 5 11.631v.785l4.239 1.796.255-.756-3.483-1.433 3.483-1.432-.255-.756Zm5.522 0-.255.756 3.483 1.432-3.483 1.433.255.755L19 12.416v-.785l-4.24-1.796Zm-3.074 3.935a.614.614 0 0 0-.481.196.667.667 0 0 0-.177.461c0 .177.059.33.177.462.117.13.278.196.48.196a.615.615 0 0 0 .482-.196.667.667 0 0 0 .176-.462.667.667 0 0 0-.176-.46.614.614 0 0 0-.481-.197Z"/><defs><radialGradient id="a" cx="0" cy="0" r="1" gradientTransform="rotate(116.565 8.441 5.908) scale(24.5967)" gradientUnits="userSpaceOnUse"><stop stop-color="#B6A6ED"/><stop offset="1" stop-color="#816ACE"/></radialGradient></defs></svg>
